; LightBurn 0.9.24
; GRBL device profile, current position
; Bounds: X-26.79 Y0 to X0 Y40
G00 G17 G40 G21 G54
G91
M4
; Scan @ 8000 mm/min, 45% power
M8
G0X-18.32Y2
; Layer C08
G1X3.33F8000S0
G1X3.94S450
G1X3.33S0
G1Y0.1S0
G1X-3.33S0
G1X-3.94S450
G1X-3.33S0
G1Y0.1S0
G1X3.33S0
G1X3.94S450
G1X3.33S0
G1Y0.1S0
G1X-3.33S0
G1X-3.94S450
G1X-3.33S0
G1Y0.1S0
G1X3.33S0
G1X3.94S450
G1X3.33S0
G1X-3.1Y0.1S0
G1X-3.33S0
G1X-0.84S450
G1X-3.33S0
G1Y0.1S0
G1X3.33S0
G1X1.13S450
G1X3.34S0
G1X0.29Y0.1S0
G1X-3.33S0
G1X-1.41S450
G1X-3.34S0
G1X0.3Y0.1S0
G1X3.34S0
G1X1.4S450
G1X3.34S0
G1X0.29Y0.1S0
G1X-3.33S0
G1X-1.4S450
G1X-3.34S0
G1X0.3Y0.1S0
G1X3.33S0
G1X1.4S450
G1X3.34S0
G1X0.29Y0.1S0
G1X-3.33S0
G1X-1.4S450
G1X-3.33S0
G1X0.3Y0.1S0
G1X3.33S0
G1X1.39S450
G1X3.34S0
G1X0.29Y0.1S0
G1X-3.33S0
G1X-1.39S450
G1X-3.33S0
G1X0.3Y0.1S0
G1X3.33S0
G1X1.38S450
G1X3.34S0
G1X0.29Y0.1S0
G1X-3.33S0
G1X-1.38S450
G1X-3.33S0
G1X0.3Y0.1S0
G1X3.33S0
G1X1.23S450
G1X3.33S0
G1Y0.1S0
G1X-3.33S0
G1X-0.92S450
G1X-3.34S0
G1X0.31Y0.1S0
G1X3.34S0
G1X0.61S450
G1X3.33S0
G1Y0.1S0
G1X-3.33S0
G1X-0.83S450
G1X-3.33S0
G1X-0.29Y0.1S0
G1X3.33S0
G1X1.12S450
G1X3.33S0
G1X-0.22Y0.1S0
G1X-3.34S0
G1X-1.18S450
G1X-3.33S0
G1X-0.29Y0.1S0
G1X3.33S0
G1X1.19S450
G1X3.33S0
G1X-0.28Y0.1S0
G1X-3.34S0
G1X-1.19S450
G1X-3.33S0
G1X-0.29Y0.1S0
G1X3.33S0
G1X1.2S450
G1X3.33S0
G1X-0.29Y0.1S0
G1X-3.33S0
G1X-1.2S450
G1X-3.33S0
G1X-0.29Y0.1S0
G1X3.33S0
G1X1.2S450
G1X3.34S0
G1X-0.29Y0.1S0
G1X-3.33S0
G1X-1.21S450
G1X-3.33S0
G1X-0.29Y0.1S0
G1X3.34S0
G1X1.2S450
G1X3.33S0
G1X-0.28Y0.1S0
G1X-3.34S0
G1X-1.2S450
G1X-3.34S0
G1X-0.21Y0.1S0
G1X3.33S0
G1X1.14S450
G1X3.33S0
G1X-0.29Y0.1S0
G1X-3.33S0
G1X-0.85S450
G1X-3.33S0
G1Y0.1S0
G1X3.33S0
G1X3.94S450
G1X3.33S0
G1Y0.1S0
G1X-3.33S0
G1X-3.94S450
G1X-3.33S0
G1Y0.1S0
G1X3.33S0
G1X3.94S450
G1X3.33S0
G1X6.08Y0.1S0
G1X-3.34S0
G1X-0.62S450
G1X-5.45S0
G1X-3.94S450
G1X-3.33S0
G1Y0.1S0
G1X3.33S0
G1X3.94S450
G1X4.13S0
G1X0.11S450
G1X1.01S0
G1X1.06S450
G1X3.33S0
G1X0.14Y0.1S0
G1X-3.34S0
G1X-1.32S450
G1X-0.54S0
G1X-0.8S450
G1X-3.33S0
G1X-0.15Y0.1S0
G1X3.34S0
G1X1.06S450
G1X0.34S0
G1X1.51S450
G1X3.33S0
G1X0.08Y0.1S0
G1X-3.33S0
G1X-0.75S450
G1X-0.25S0
G1X-0.65S450
G1X-0.19S0
G1X-1.26S450
G1X-3.33S0
G1X-0.07Y0.1S0
G1X3.33S0
G1X1.38S450
G1X0.09S0
G1X0.45S450
G1X0.78S0
G1X0.52S450
G1X3.34S0
G1X0.05Y0.1S0
G1X-3.34S0
G1X-0.44S450
G1X-1.03S0
G1X-0.36S450
G1X-0.43
G1X-0.55S0
G1X-0.51S450
G1X-3.34S0
G1X-0.04Y0.1S0
G1X3.34S0
G1X0.43S450
G1X0.79S0
G1X0.59S450
G1X1.18S0
G1X0.41S450
G1X3.33S0
G1X0.02Y0.1S0
G1X-3.33S0
G1X-0.38S450
G1X-1.28S0
G1X-0.47S450
G1X-0.94S0
G1X-0.38S450
G1X-3.33S0
G1X-0.02Y0.1S0
G1X3.33S0
G1X0.36S450
G1X1.03S0
G1X0.39S450
G1X1.35S0
G1X0.36S450
G1X3.33S0
G1X0.01Y0.1S0
G1X-3.34S0
G1X-0.35S450
G1X-1.37S0
G1X-0.36S450
G1X-1.07S0
G1X-0.35S450
G1X-3.31S0
G1X-2.85S450
G1X-3.34S0
G1Y0.1S0
G1X3.34S0
G1X2.85S450
G1X3.31S0
G1X0.34S450
G1X1.08S0
G1X0.35S450
G1X1.39S0
G1X0.35S450
G1X3.33S0
G1Y0.1S0
G1X-3.34S0
G1X-0.34S450
G1X-1.38S0
G1X-0.36S450
G1X-1.07S0
G1X-0.34S450
G1X-3.32S0
G1X-2.85S450
G1X-3.34S0
G1Y0.1S0
G1X3.34S0
G1X2.85S450
G1X3.32S0
G1X0.37S450
G1X1.01S0
G1X0.42S450
G1X1.33S0
G1X0.35S450
G1X3.34S0
G1X-0.02Y0.1S0
G1X-3.34S0
G1X-0.37S450
G1X-1.26S0
G1X-0.5S450
G1X-0.91S0
G1X-0.39S450
G1X-3.35S0
G1X-2.85S450
G1X-3.34S0
G1X2.07Y0.1S0
G1X3.33S0
G1X0.74S450
G1X3.43S0
G1X0.45S450
G1X0.74S0
G1X0.64S450
G1X1.14S0
G1X0.41S450
G1X3.33S0
G1X-0.04Y0.1S0
G1X-3.33S0
G1X-0.45S450
G1X-0.97S0
G1X-0.39S450
G1X-0.03S0
G1X-0.46S450
G1X-0.44S0
G1X-0.55S450
G1X-3.64S0
G1X-0.74S450
G1X-3.33S0
G1X-0.17Y0.1S0
G1X3.34S0
G1X0.74S450
G1X3.86S0
G1X1.34S450
G1X0.12S0
G1X0.49S450
G1X0.69S0
G1X0.54S450
G1X3.33S0
G1X-0.06Y0.1S0
G1X-3.34S0
G1X-1.6S450
G1X-0.22S0
G1X-1.21S450
G1X-4.1S0
G1X-0.74S450
G1X-3.34S0
G1X-0.16Y0.1S0
G1X3.33S0
G1X0.75S450
G1X4.37S0
G1X1S450
G1X0.39S0
G1X1.46S450
G1X3.33S0
G1X-0.11Y0.1S0
G1X-3.34S0
G1X-1.24S450
G1X-0.64S0
G1X-0.69S450
G1X-4.7S0
G1X-0.74S450
G1X-3.33S0
G1X-0.16Y0.1S0
G1X3.33S0
G1X0.74S450
G1X6.33S0
G1X0.95S450
G1X3.33S0
G1X-0.28Y0.1S0
G1X-3.33S0
G1X-0.39S450
G1X-6.77S0
G1X-0.74S450
G1X-3.33S0
G1X-0.17Y0.1S0
G1X3.34S0
G1X0.74S450
G1X3.33S0
G1X-0.16Y0.1S0
G1X-3.33S0
G1X-0.75S450
G1X-3.33S0
G1X-0.16Y0.1S0
G1X3.33S0
G1X0.75S450
G1X3.33S0
G1X-0.16Y0.1S0
G1X-3.33S0
G1X-0.75S450
G1X-3.33S0
G1X-0.16Y0.1S0
G1X3.33S0
G1X0.75S450
G1X6.01S0
G1X0.87S450
G1X1.07S0
G1X0.02S450
G1X3.33S0
G1X0.34Y0.1S0
G1X-3.33S0
G1X-0.37S450
G1X-0.84S0
G1X-1.31S450
G1X-5.95S0
G1X-0.71S450
G1X-3.34S0
G1Y0.1S0
G1X3.34S0
G1X2.85S450
G1X3.68S0
G1X1.57S450
G1X0.7S0
G1X0.54S450
G1X3.33S0
G1X0.11Y0.1S0
G1X-3.34S0
G1X-0.65S450
G1X-0.59S0
G1X-1.77S450
G1X-3.58S0
G1X-2.85S450
G1X-3.34S0
G1Y0.1S0
G1X3.34S0
G1X2.85S450
G1X3.49S0
G1X0.73S450
G1X0.5S0
G1X0.71S450
G1X0.51S0
G1X0.73S450
G1X3.33S0
G1X0.06Y0.1S0
G1X-3.34S0
G1X-0.5S450
G1X-0.73S0
G1X-0.55S450
G1X-0.95S0
G1X-0.56S450
G1X-3.43S0
G1X-2.85S450
G1X-3.34S0
G1X6.24Y0.1S0
G1X3.33S0
G1X0.48S450
G1X1.19S0
G1X0.48S450
G1X0.82S0
G1X0.42S450
G1X3.33S0
G1X0.02Y0.1S0
G1X-3.33S0
G1X-0.38S450
G1X-0.85S0
G1X-0.44S450
G1X-1.34S0
G1X-0.43S450
G1X-3.33S0
G1X-0.03Y0.1S0
G1X3.34S0
G1X0.38S450
G1X1.46S0
G1X0.41S450
G1X0.87S0
G1X0.36S450
G1X3.33S0
G1X0.01Y0.1S0
G1X-3.33S0
G1X-0.36S450
G1X-0.87S0
G1X-0.39S450
G1X-1.52S0
G1X-0.36S450
G1X-3.34S0
G1Y0.1S0
G1X3.33S0
G1X0.35S450
G1X1.56S0
G1X0.37S450
G1X0.88S0
G1X0.35S450
G1X3.33S0
G1Y0.1S0
G1X-3.34S0
G1X-0.35S450
G1X-0.88S0
G1X-0.36S450
G1X-1.56S0
G1X-0.35S450
G1X-3.33S0
G1X0.01Y0.1S0
G1X3.33S0
G1X0.35S450
G1X1.54S0
G1X0.35S450
G1X0.87S0
G1X0.37S450
G1X3.33S0
G1X-0.02Y0.1S0
G1X-3.34S0
G1X-0.38S450
G1X-0.87S0
G1X-0.35S450
G1X-1.46S0
G1X-0.36S450
G1X-3.34S0
G1X-6.2Y0.1S0
G1X3.34S0
G1X3.95S450
G1X2.28S0
G1X0.38S450
G1X1.36S0
G1X0.36S450
G1X0.84S0
G1X0.42S450
G1X3.33S0
G1X-0.04Y0.1S0
G1X-3.34S0
G1X-0.48S450
G1X-0.8S0
G1X-0.37S450
G1X-1.2S0
G1X-0.42S450
G1X-2.32S0
G1X-3.95S450
G1X-3.34S0
G1Y0.1S0
G1X3.34S0
G1X3.95S450
G1X2.37S0
G1X0.5S450
G1X0.95S0
G1X0.42S450
G1X0.71S0
G1X0.58S450
G1X3.33S0
G1X-0.08Y0.1S0
G1X-3.33S0
G1X-0.78S450
G1X-0.54S0
G1X-0.57S450
G1X-0.42S0
G1X-0.7S450
G1X-2.44S0
G1X-3.95S450
G1X-3.34S0
G1X0.33Y0.1S0
G1X3.34S0
G1X0.72S450
G1X0.79S0
G1X2.11S450
G1X2.53S0
G1X2.82S450
G1X3.33S0
G1X-0.13Y0.1S0
G1X-3.33S0
G1X-2.57S450
G1X-3.95S0
G1X-0.52S450
G1X-1.38S0
G1X-0.54S450
G1X-3.33S0
G1X-0.09Y0.1S0
G1X3.34S0
G1X0.47S450
G1X1.67S0
G1X0.46S450
G1X4.03S0
G1X2.23S450
G1X3.33S0
G1X-0.29Y0.1S0
G1X-3.33S0
G1X-1.69S450
G1X-4.21S0
G1X-0.43S450
G1X-1.87S0
G1X-0.45S450
G1X-3.33S0
G1X-0.04Y0.1S0
G1X3.33S0
G1X0.41S450
G1X2.01S0
G1X0.41S450
G1X3.33S0
G1X0.04Y0.1S0
G1X-3.33S0
G1X-0.4S450
G1X-2.11S0
G1X-0.4S450
G1X-3.33S0
G1X-0.02Y0.1S0
G1X3.34S0
G1X0.37S450
G1X2.17S0
G1X0.39S450
G1X3.34S0
G1X0.01Y0.1S0
G1X-3.33S0
G1X-0.4S450
G1X-2.19S0
G1X-0.37S450
G1X-3.34S0
G1X-0.01Y0.1S0
G1X3.34S0
G1X0.38S450
G1X2.19S0
G1X0.4S450
G1X4.83S0
G1X0.52S450
G1X3.33S0
G1X0.59Y0.1S0
G1X-3.33S0
G1X-1.77S450
G1X-4.18S0
G1X-0.41S450
G1X-2.15S0
G1X-0.4S450
G1X-3.33S0
G1X0.01Y0.1S0
G1X3.34S0
G1X0.41S450
G1X2.08S0
G1X0.43S450
G1X3.92S0
G1X2.3S450
G1X3.33S0
G1X0.15Y0.1S0
G1X-3.33S0
G1X-2.61S450
G1X-3.78S0
G1X-0.46S450
G1X-1.97S0
G1X-0.45S450
G1X-3.34S0
G1X0.04Y0.1S0
G1X3.33S0
G1X0.5S450
G1X1.8S0
G1X0.51S450
G1X3.69S0
G1X2.85S450
G1X3.33S0
G1X0.1Y0.1S0
G1X-3.34S0
G1X-0.73S450
G1X-0.44S0
G1X-0.56S450
G1X-0.6S0
G1X-0.71S450
G1X-3.64S0
G1X-0.57S450
G1X-1.58S0
G1X-0.57S450
G1X-3.33S0
G1X0.05Y0.1S0
G1X3.34S0
G1X0.7S450
G1X1.2S0
G1X0.7S450
G1X3.63S0
G1X0.57S450
G1X0.71S0
G1X0.43S450
G1X0.92S0
G1X0.54S450
G1X3.34S0
G1X0.06Y0.1S0
G1X-3.34S0
G1X-0.46S450
G1X-1.17S0
G1X-0.39S450
G1X-0.79S0
G1X-0.48S450
G1X-3.64S0
G1X-2.46S450
G1X-3.33S0
G1X0.09Y0.1S0
G1X3.33S0
G1X2.27S450
G1X3.69S0
G1X0.43S450
G1X0.82S0
G1X0.38S450
G1X1.34S0
G1X0.41S450
G1X3.33S0
G1X0.03Y0.1S0
G1X-3.33S0
G1X-0.38S450
G1X-1.46S0
G1X-0.35S450
G1X-0.86S0
G1X-0.39S450
G1X-3.78S0
G1X-2.03S450
G1X-3.34S0
G1X0.16Y0.1S0
G1X3.34S0
G1X1.71S450
G1X3.92S0
G1X0.36S450
G1X0.87S0
G1X0.36S450
G1X1.53S0
G1X0.35S450
G1X3.34S0
G1X0.01Y0.1S0
G1X-3.34S0
G1X-0.35S450
G1X-1.55S0
G1X-0.36S450
G1X-0.88S0
G1X-0.35S450
G1X-4.14S0
G1X-1.24S450
G1X-3.34S0
G1X5.38Y0.1S0
G1X3.33S0
G1X0.34S450
G1X0.88S0
G1X0.38S450
G1X1.56S0
G1X0.35S450
G1X3.33S0
G1Y0.1S0
G1X-3.34S0
G1X-0.35S450
G1X-1.54S0
G1X-0.39S450
G1X-0.87S0
G1X-0.35S450
G1X-3.33S0
G1X0.01Y0.1S0
G1X3.33S0
G1X0.37S450
G1X0.85S0
G1X0.41S450
G1X1.48S0
G1X0.37S450
G1X3.33S0
G1X-0.02Y0.1S0
G1X-3.33S0
G1X-0.4S450
G1X-1.38S0
G1X-0.44S450
G1X-0.82S0
G1X-0.4S450
G1X-3.33S0
G1X0.02Y0.1S0
G1X3.34S0
G1X0.44S450
G1X0.79S0
G1X0.47S450
G1X1.22S0
G1X0.45S450
G1X3.33S0
G1X-0.04Y0.1S0
G1X-3.34S0
G1X-0.52S450
G1X-0.98S0
G1X-0.55S450
G1X-0.68S0
G1X-0.55S450
G1X-3.8S0
G1X-0.72S450
G1X-0.92S0
G1X-0.02S450
G1X-3.33S0
G1X-0.29Y0.1S0
G1X3.33S0
G1X0.32S450
G1X0.76S0
G1X1.02S450
G1X3.71S0
G1X0.73S450
G1X0.5S0
G1X0.73S450
G1X0.49S0
G1X0.71S450
G1X3.33S0
G1X-0.08Y0.1S0
G1X-3.33S0
G1X-1.77S450
G1X-0.59S0
G1X-0.65S450
G1X-3.68S0
G1X-1.22S450
G1X-0.65S0
G1X-0.5S450
G1X-3.33S0
G1X-0.1Y0.1S0
G1X3.33S0
G1X0.62S450
G1X0.56S0
G1X1.36S450
G1X3.72S0
G1X0.53S450
G1X0.71S0
G1X1.55S450
G1X3.33S0
G1X-0.15Y0.1S0
G1X-3.34S0
G1X-1.26S450
G1X-0.85S0
G1X-0.36S450
G1X-3.84S0
G1X-1.46S450
G1X-0.49S0
G1X-0.72S450
G1X-3.33S0
G1X-0.05Y0.1S0
G1X3.34S0
G1X0.67S450
G1X0.54S0
G1X0.53S450
G1X0.46S0
G1X0.55S450
G1X4.14S0
G1X0.01S450
G1X1.09S0
G1X0.78S450
G1X3.33S0
G1X-5.99Y0.1S0
G1X-3.34S0
G1X-0.46S450
G1X-0.67S0
G1X-0.47S450
G1X-0.7S0
G1X-0.52S450
G1X-3.34S0
G1X-0.03Y0.1S0
G1X3.33S0
G1X0.45S450
G1X0.79S0
G1X0.44S450
G1X0.78S0
G1X0.42S450
G1X3.33S0
G1X0.01Y0.1S0
G1X-3.33S0
G1X-0.4S450
G1X-0.84S0
G1X-0.43S450
G1X-0.83S0
G1X-0.41S450
G1X-3.34S0
G1X-0.02Y0.1S0
G1X3.33S0
G1X0.4S450
G1X0.86S0
G1X0.41S450
G1X0.89S0
G1X0.38S450
G1X3.33S0
G1Y0.1S0
G1X-3.34S0
G1X-0.37S450
G1X-0.91S0
G1X-0.41S450
G1X-0.86S0
G1X-0.39S450
G1X-3.34S0
G1Y0.1S0
G1X3.33S0
G1X0.39S450
G1X0.86S0
G1X0.41S450
G1X0.91S0
G1X0.37S450
G1X3.32S0
G1X0.41S450
G1X3.33S0
G1Y0.1S0
G1X-3.33S0
G1X-0.41S450
G1X-3.33S0
G1X-0.37S450
G1X-0.92S0
G1X-0.4S450
G1X-0.85S0
G1X-0.4S450
G1X-3.33S0
G1X-0.01Y0.1S0
G1X3.34S0
G1X0.4S450
G1X0.83S0
G1X0.4S450
G1X0.92S0
G1X0.36S450
G1X3.36S0
G1X0.41S450
G1X3.33S0
G1Y0.1S0
G1X-3.33S0
G1X-0.41S450
G1X-3.39S0
G1X-0.37S450
G1X-0.89S0
G1X-0.4S450
G1X-0.81S0
G1X-0.41S450
G1X-3.33S0
G1X0.01Y0.1S0
G1X3.33S0
G1X0.42S450
G1X0.77S0
G1X0.4S450
G1X0.87S0
G1X0.37S450
G1X3.43S0
G1X0.41S450
G1X2.76S0
G1X0.23S450
G1X3.34S0
G1Y0.1S0
G1X-3.34S0
G1X-0.8S450
G1X-2.19S0
G1X-0.41S450
G1X-3.48S0
G1X-0.39S450
G1X-0.83S0
G1X-0.39S450
G1X-0.72S0
G1X-0.44S450
G1X-3.34S0
G1X0.02Y0.1S0
G1X3.34S0
G1X0.47S450
G1X0.65S0
G1X0.39S450
G1X0.77S0
G1X0.41S450
G1X3.54S0
G1X0.41S450
G1X1.84S0
G1X1.15S450
G1X3.34S0
G1Y0.1S0
G1X-3.34S0
G1X-1.45S450
G1X-1.54S0
G1X-0.41S450
G1X-3.61S0
G1X-0.49S450
G1X-0.65S0
G1X-0.39S450
G1X-0.53S0
G1X-0.54S450
G1X-3.33S0
G1X0.03Y0.1S0
G1X3.33S0
G1X0.81S450
G1X0.2S0
G1X0.38S450
G1X0.21S0
G1X0.9S450
G1X3.68S0
G1X0.41S450
G1X1.29S0
G1X1.7S450
G1X3.34S0
G1X-0.6Y0.1S0
G1X-3.34S0
G1X-1.31S450
G1X-1.08S0
G1X-0.41S450
G1X-3.46S0
G1X-2.67S450
G1X-3.33S0
G1X0.05Y0.1S0
G1X3.34S0
G1X2.71S450
G1X3.36S0
G1X0.41S450
G1X0.87S0
G1X1.12S450
G1X3.33S0
G1X-0.28Y0.1S0
G1X-3.34S0
G1X-1S450
G1X-0.7S0
G1X-0.41S450
G1X-3.36S0
G1X-2.63S450
G1X-3.33S0
G1X0.15Y0.1S0
G1X3.33S0
G1X2.48S450
G1X3.36S0
G1X0.41S450
G1X0.53S0
G1X0.89S450
G1X3.34S0
G1X-0.21Y0.1S0
G1X-3.33S0
G1X-0.85S450
G1X-0.37S0
G1X-0.41S450
G1X-3.36S0
G1X-0.72S450
G1X-3.34S0
G1X0.63Y0.1S0
G1X3.33S0
G1X0.1S450
G1X3.36S0
G1X0.41S450
G1X0.24S0
G1X0.77S450
G1X3.34S0
G1X-0.2Y0.1S0
G1X-3.33S0
G1X-0.71S450
G1X-0.11S0
G1X-0.41S450
G1X-3.33S0
G1Y0.1S0
G1X3.33S0
G1X1.05S450
G1X3.34S0
G1X-0.16Y0.1S0
G1X-3.33S0
G1X-0.9S450
G1X-3.33S0
G1Y0.1S0
G1X3.33S0
G1X0.74S450
G1X3.34S0
G1X-0.14Y0.1S0
G1X-3.33S0
G1X-0.61S450
G1X-3.33S0
G1Y0.1S0
G1X3.33S0
G1X0.48S450
G1X3.34S0
G1X-0.12Y0.1S0
G1X-3.33S0
G1X-0.37S450
G1X-3.33S0
G1X1.06Y0.5S0
G1X3.34S0
G1X1.24S450
G1X3.33S0
G1X0.42Y0.1S0
G1X-3.34S0
G1X-2.05S450
G1X-3.33S0
G1X-0.22Y0.1S0
G1X3.33S0
G1X2.5S450
G1X3.33S0
G1X0.17Y0.1S0
G1X-3.34S0
G1X-2.8S450
G1X-3.34S0
G1X-0.11Y0.1S0
G1X3.34S0
G1X1.12S450
G1X0.79S0
G1X1.1S450
G1X3.34S0
G1X0.08Y0.1S0
G1X-3.34S0
G1X-0.62S450
G1X-1.9S0
G1X-0.65S450
G1X-3.34S0
G1X-0.06Y0.1S0
G1X3.33S0
G1X0.5S450
G1X2.3S0
G1X0.5S450
G1X3.34S0
G1X0.04Y0.1S0
G1X-3.33S0
G1X-0.43S450
G1X-2.53S0
G1X-0.43S450
G1X-3.36S0
G1X-0.25S450
G1X-3.33S0
G1X-0.21Y0.1S0
G1X3.34S0
G1X0.47S450
G1X3.31S0
G1X0.38S450
G1X2.68S0
G1X0.39S450
G1X3.33S0
G1X0.02Y0.1S0
G1X-3.33S0
G1X-0.37S450
G1X-2.75S0
G1X-0.37S450
G1X-3.27S0
G1X-0.46S450
G1X-3.33S0
G1Y0.1S0
G1X3.34S0
G1X0.46S450
G1X3.25S0
G1X0.36S450
G1X2.8S0
G1X0.34S450
G1X3.34S0
G1Y0.1S0
G1X-3.33S0
G1X-0.35S450
G1X-2.81S0
G1X-0.35S450
G1X-3.25S0
G1X-0.49S450
G1X-3.33S0
G1X-0.07Y0.1S0
G1X3.33S0
G1X0.56S450
G1X3.26S0
G1X0.35S450
G1X2.79S0
G1X0.35S450
G1X3.34S0
G1X-0.02Y0.1S0
G1X-3.33S0
G1X-0.38S450
G1X-2.71S0
G1X-0.38S450
G1X-3.3S0
G1X-0.83S450
G1X-3.33S0
G1X-3.14Y0.1S0
G1X3.33S0
G1X3.94S450
G1X3.36S0
G1X0.41S450
G1X2.59S0
G1X0.42S450
G1X3.33S0
G1X-0.04Y0.1S0
G1X-3.33S0
G1X-0.47S450
G1X-2.41S0
G1X-0.46S450
G1X-3.46S0
G1X-3.88S450
G1X-3.33S0
G1Y0.1S0
G1X3.33S0
G1X3.78S450
G1X3.61S0
G1X0.56S450
G1X2.11S0
G1X0.57S450
G1X3.33S0
G1X-0.07Y0.1S0
G1X-3.33S0
G1X-0.8S450
G1X-1.51S0
G1X-0.79S450
G1X-3.82S0
G1X-3.64S450
G1X-3.33S0
G1Y0.1S0
G1X3.33S0
G1X3.29S450
G1X4.26S0
G1X2.91S450
G1X3.33S0
G1X-0.12Y0.1S0
G1X-3.34S0
G1X-2.66S450
G1X-7.2S0
G1X-0.47S450
G1X-3.33S0
G1Y0.1S0
G1X3.33S0
G1X0.47S450
G1X7.39S0
G1X2.3S450
G1X3.33S0
G1X-0.28Y0.1S0
G1X-3.34S0
G1X-1.73S450
G1X-7.67S0
G1X-0.47S450
G1X-3.33S0
G1Y0.1S0
G1X3.33S0
G1X0.47S450
G1X3.33S0
G1Y0.1S0
G1X-3.33S0
G1X-0.47S450
G1X-3.33S0
G1Y0.1S0
G1X3.33S0
G1X0.47S450
G1X3.33S0
G1Y0.1S0
G1X-3.33S0
G1X-0.47S450
G1X-3.33S0
G1Y0.1S0
G1X3.33S0
G1X0.47S450
G1X3.33S0
G1X9.65Y0.1S0
G1X-3.33S0
G1X-0.81S450
G1X-8.84S0
G1X-0.47S450
G1X-3.33S0
G1Y0.1S0
G1X3.33S0
G1X0.47S450
G1X7.42S0
G1X0.49S450
G1X0.76S0
G1X1.16S450
G1X3.34S0
G1X0.11Y0.1S0
G1X-3.33S0
G1X-1.39S450
G1X-0.46S0
G1X-0.91S450
G1X-7.19S0
G1X-0.47S450
G1X-3.33S0
G1Y0.1S0
G1X3.33S0
G1X0.47S450
G1X7.07S0
G1X1.13S450
G1X0.29S0
G1X1.55S450
G1X3.33S0
G1X0.08Y0.1S0
G1X-3.33S0
G1X-0.64S450
G1X-0.5S0
G1X-0.55S450
G1X-0.15S0
G1X-1.3S450
G1X-6.98S0
G1X-0.47S450
G1X-3.33S0
G1Y0.1S0
G1X3.33S0
G1X0.47S450
G1X6.91S0
G1X0.68S450
G1X0.12S0
G1X0.62S450
G1X0.06S0
G1X0.42S450
G1X0.87S0
G1X0.49S450
G1X3.33S0
G1X0.05Y0.1S0
G1X-3.33S0
G1X-0.44S450
G1X-1.07S0
G1X-0.72S450
G1X-0.65S0
G1X-0.48S450
G1X-3.39S0
G1X-3.94S450
G1X-3.33S0
G1Y0.1S0
G1X3.33S0
G1X3.94S450
G1X3.36S0
G1X0.41S450
G1X0.85S0
G1X0.55S450
G1X1.21S0
G1X0.39S450
G1X3.34S0
G1X0.02Y0.1S0
G1X-3.33S0
G1X-0.38S450
G1X-1.3S0
G1X-0.44S450
G1X-0.97S0
G1X-0.38S450
G1X-3.33S0
G1X-3.94S450
G1X-3.33S0
G1Y0.1S0
G1X3.33S0
G1X3.94S450
G1X3.32S0
G1X0.35S450
G1X1.04S0
G1X0.38S450
G1X1.37S0
G1X0.35S450
G1X3.33S0
G1X0.01Y0.1S0
G1X-3.33S0
G1X-0.35S450
G1X-1.39S0
G1X-0.35S450
G1X-1.07S0
G1X-0.35S450
G1X-3.31S0
G1X-3.94S450
G1X-3.33S0
G1X7.25Y0.1S0
G1X3.33S0
G1X0.35S450
G1X1.07S0
G1X0.36S450
G1X1.38S0
G1X0.35S450
G1X3.33S0
G1X-0.01Y0.1S0
G1X-3.33S0
G1X-0.35S450
G1X-1.36S0
G1X-0.38S450
G1X-1.05S0
G1X-0.35S450
G1X-3.33S0
G1X0.01Y0.1S0
G1X3.33S0
G1X0.38S450
G1X0.98S0
G1X0.43S450
G1X1.32S0
G1X0.36S450
G1X3.34S0
G1X-0.03Y0.1S0
G1X-3.33S0
G1X-0.39S450
G1X-1.22S0
G1X-0.54S450
G1X-0.86S0
G1X-0.41S450
G1X-3.33S0
G1X0.03Y0.1S0
G1X3.33S0
G1X0.48S450
G1X0.66S0
G1X0.71S450
G1X1.09S0
G1X0.42S450
G1X3.33S0
G1X-0.04Y0.1S0
G1X-3.34S0
G1X-0.47S450
G1X-0.89S0
G1X-0.42S450
G1X-0.05S0
G1X-0.54S450
G1X-0.25S0
G1X-0.64S450
G1X-3.33S0
G1X0.07Y0.1S0
G1X3.33S0
G1X1.3S450
G1X0.15S0
G1X0.54S450
G1X0.57S0
G1X0.59S450
G1X3.33S0
G1X-0.08Y0.1S0
G1X-3.33S0
G1X-1.56S450
G1X-0.27S0
G1X-1.15S450
G1X-3.33S0
G1X-6.46Y0.1S0
G1X3.34S0
G1X2.85S450
G1X3.72S0
G1X0.93S450
G1X0.45S0
G1X1.39S450
G1X3.34S0
G1X-0.12Y0.1S0
G1X-3.33S0
G1X-1.17S450
G1X-0.75S0
G1X-0.53S450
G1X-3.93S0
G1X-2.85S450
G1X-3.34S0
G1Y0.1S0
G1X3.34S0
G1X2.85S450
G1X5.37S0
G1X0.83S450
G1X3.33S0
G1X-6.2Y0.1S0
G1X-3.33S0
G1X-2.85S450
G1X-3.34S0
G1Y0.1S0
G1X3.34S0
G1X2.85S450
G1X3.33S0
G1Y0.1S0
G1X-3.33S0
G1X-0.39S450
G1X-0.95S0
G1X-0.4S450
G1X-3.33S0
G1Y0.1S0
G1X3.33S0
G1X0.4S450
G1X0.95S0
G1X0.39S450
G1X3.33S0
G1Y0.1S0
G1X-3.33S0
G1X-0.39S450
G1X-0.95S0
G1X-0.4S450
G1X-3.33S0
G1Y0.1S0
G1X3.33S0
G1X0.4S450
G1X0.95S0
G1X0.39S450
G1X3.99S0
G1X0.22S450
G1X1.63S0
G1X0.38S450
G1X3.33S0
G1X0.17Y0.1S0
G1X-3.33S0
G1X-0.57S450
G1X-1.59S0
G1X-0.45S450
G1X-3.78S0
G1X-0.39S450
G1X-0.95S0
G1X-0.4S450
G1X-3.33S0
G1Y0.1S0
G1X3.33S0
G1X0.4S450
G1X0.94S0
G1X0.4S450
G1X3.64S0
G1X0.61S450
G1X1.56S0
G1X0.69S450
G1X3.34S0
G1X0.09Y0.1S0
G1X-3.34S0
G1X-0.79S450
G1X-1.53S0
G1X-0.73S450
G1X-3.54S0
G1X-0.4S450
G1X-0.93S0
G1X-0.4S450
G1X-3.34S0
G1X0.01Y0.1S0
G1X3.33S0
G1X0.4S450
G1X0.93S0
G1X0.4S450
G1X3.47S0
G1X0.66S450
G1X1.92S0
G1X0.62S450
G1X3.33S0
G1X0.05Y0.1S0
G1X-3.33S0
G1X-0.49S450
G1X-2.33S0
G1X-0.49S450
G1X-3.42S0
G1X-0.41S450
G1X-0.9S0
G1X-0.4S450
G1X-3.34S0
G1X0.01Y0.1S0
G1X3.34S0
G1X0.41S450
G1X0.87S0
G1X0.42S450
G1X3.38S0
G1X0.42S450
G1X2.54S0
G1X0.43S450
G1X3.33S0
G1X0.03Y0.1S0
G1X-3.34S0
G1X-0.38S450
G1X-2.68S0
G1X-0.38S450
G1X-3.36S0
G1X-0.44S450
G1X-0.82S0
G1X-0.41S450
G1X-3.34S0
G1X0.02Y0.1S0
G1X3.33S0
G1X0.44S450
G1X0.74S0
G1X0.46S450
G1X3.36S0
G1X0.36S450
G1X1.08S0
G1X0.36S450
G1X1.32S0
G1X0.37S450
G1X3.33S0
G1X0.01Y0.1S0
G1X-3.34S0
G1X-0.35S450
G1X-1.37S0
G1X-0.33S450
G1X-1.1S0
G1X-0.35S450
G1X-3.38S0
G1X-0.5S450
G1X-0.57S0
G1X-0.5S450
G1X-3.34S0
G1X0.04Y0.1S0
G1X3.33S0
G1X0.69S450
G1X0.17S0
G1X0.64S450
G1X3.42S0
G1X0.34S450
G1X1.1S0
G1X0.33S450
G1X1.39S0
G1X0.35S450
G1X3.33S0
G1Y0.1S0
G1X-3.34S0
G1X-0.35S450
G1X-1.37S0
G1X-0.36S450
G1X-1.07S0
G1X-0.34S450
G1X-3.47S0
G1X-1.4S450
G1X-3.34S0
G1X0.07Y0.1S0
G1X3.33S0
G1X1.26S450
G1X3.56S0
G1X0.36S450
G1X1S0
G1X0.41S450
G1X1.34S0
G1X0.36S450
G1X3.34S0
G1X-0.02Y0.1S0
G1X-3.34S0
G1X-0.37S450
G1X-1.28S0
G1X-0.49S450
G1X-0.91S0
G1X-0.37S450
G1X-3.68S0
G1X-1.08S450
G1X-3.33S0
G1X0.13Y0.1S0
G1X3.33S0
G1X0.81S450
G1X3.85S0
G1X0.42S450
G1X0.76S0
G1X0.61S450
G1X1.17S0
G1X0.41S450
G1X3.33S0
G1X-0.04Y0.1S0
G1X-3.33S0
G1X-0.45S450
G1X-1.01S0
G1X-0.81S450
G1X-0.5S0
G1X-0.52S450
G1X-4.21S0
G1X-0.16S450
G1X-3.33S0
G1X4.43Y0.1S0
G1X3.34S0
G1X1.34S450
G1X0.08S0
G1X0.45S450
G1X0.77S0
G1X0.53S450
G1X3.33S0
G1X-0.06Y0.1S0
G1X-3.33S0
G1X-0.76S450
G1X-0.2S0
G1X-0.69S450
G1X-0.18S0
G1X-1.22S450
G1X-3.33S0
G1X0.12Y0.1S0
G1X3.33S0
G1X1S450
G1X0.34S0
G1X1.51S450
G1X3.33S0
G1X-0.1Y0.1S0
G1X-3.34S0
G1X-1.33S450
G1X-0.55S0
G1X-0.7S450
G1X-3.33S0
G1X1.36Y0.1S0
G1X3.34S0
G1X1.08S450
G1X3.33S0
G1X-0.21Y0.1S0
G1X-3.34S0
G1X-0.67S450
G1X-5.4S0
G1X-2.85S450
G1X-3.34S0
G1Y0.1S0
G1X3.34S0
G1X2.85S450
G1X3.33S0
G1Y0.1S0
G1X-3.33S0
G1X-2.85S450
G1X-3.34S0
G1Y0.1S0
G1X3.34S0
G1X2.85S450
G1X3.33S0
G1Y0.1S0
G1X-3.33S0
G1X-2.85S450
G1X-3.34S0
G1Y0.1S0
G1X3.34S0
G1X0.4S450
G1X0.8S0
G1X0.4S450
G1X0.86S0
G1X0.39S450
G1X4.27S0
G1X0.03S450
G1X2.09S0
G1X0.37S450
G1X3.34S0
G1Y0.1S0
G1X-3.34S0
G1X-0.55S450
G1X-1.9S0
G1X-0.43S450
G1X-3.88S0
G1X-0.39S450
G1X-0.86S0
G1X-0.4S450
G1X-0.8S0
G1X-0.4S450
G1X-3.34S0
G1Y0.1S0
G1X3.34S0
G1X0.4S450
G1X0.8S0
G1X0.4S450
G1X0.86S0
G1X0.39S450
G1X3.7S0
G1X0.62S450
G1X1.75S0
G1X0.69S450
G1X3.34S0
G1Y0.1S0
G1X-3.34S0
G1X-0.81S450
G1X-1.62S0
G1X-0.74S450
G1X-3.59S0
G1X-0.39S450
G1X-0.86S0
G1X-0.4S450
G1X-0.8S0
G1X-0.4S450
G1X-3.34S0
G1Y0.1S0
G1X3.34S0
G1X0.4S450
G1X0.8S0
G1X0.4S450
G1X0.86S0
G1X0.39S450
G1X3.51S0
G1X0.83S450
G1X1.51S0
G1X0.91S450
G1X3.34S0
G1Y0.1S0
G1X-3.34S0
G1X-1.01S450
G1X-1.74S0
G1X-0.56S450
G1X-3.45S0
G1X-0.39S450
G1X-0.86S0
G1X-0.4S450
G1X-0.8S0
G1X-0.4S450
G1X-3.34S0
G1Y0.1S0
G1X3.34S0
G1X0.4S450
G1X0.8S0
G1X0.4S450
G1X0.85S0
G1X0.4S450
G1X3.4S0
G1X0.46S450
G1X1.8S0
G1X0.56S450
G1X0.14S0
G1X0.4S450
G1X3.34S0
G1Y0.1S0
G1X-3.34S0
G1X-0.4S450
G1X-0.25S0
G1X-0.53S450
G1X-1.81S0
G1X-0.41S450
G1X-3.36S0
G1X-0.4S450
G1X-0.85S0
G1X-0.41S450
G1X-0.78S0
G1X-0.41S450
G1X-3.33S0
G1Y0.1S0
G1X3.34S0
G1X0.41S450
G1X0.76S0
G1X0.43S450
G1X0.83S0
G1X0.41S450
G1X3.34S0
G1X0.38S450
G1X1.77S0
G1X0.53S450
G1X0.34S0
G1X0.4S450
G1X3.34S0
G1Y0.1S0
G1X-3.34S0
G1X-0.4S450
G1X-0.43S0
G1X-0.53S450
G1X-1.72S0
G1X-0.36S450
G1X-3.33S0
G1X-0.41S450
G1X-0.81S0
G1X-0.47S450
G1X-0.7S0
G1X-0.44S450
G1X-3.33S0
G1X0.01Y0.1S0
G1X3.34S0
G1X0.46S450
G1X0.6S0
G1X0.55S450
G1X0.77S0
G1X0.42S450
G1X3.33S0
G1X0.36S450
G1X1.65S0
G1X0.52S450
G1X0.52S0
G1X0.4S450
G1X3.34S0
G1Y0.1S0
G1X-3.34S0
G1X-0.4S450
G1X-0.6S0
G1X-0.53S450
G1X-1.57S0
G1X-0.35S450
G1X-3.35S0
G1X-0.44S450
G1X-0.68S0
G1X-0.7S450
G1X-0.4S0
G1X-0.54S450
G1X-3.34S0
G1X0.04Y0.1S0
G1X3.33S0
G1X1.7S450
G1X0.51S0
G1X0.5S450
G1X3.37S0
G1X0.36S450
G1X1.47S0
G1X0.53S450
G1X0.69S0
G1X0.4S450
G1X3.34S0
G1Y0.1S0
G1X-3.34S0
G1X-0.4S450
G1X-0.78S0
G1X-0.53S450
G1X-1.37S0
G1X-0.36S450
G1X-3.41S0
G1X-2.62S450
G1X-3.34S0
G1X0.08Y0.1S0
G1X3.33S0
G1X1.09S450
G1X0.11S0
G1X1.3S450
G1X3.48S0
G1X0.38S450
G1X1.22S0
G1X0.56S450
G1X0.86S0
G1X0.4S450
G1X3.34S0
G1Y0.1S0
G1X-3.34S0
G1X-0.4S450
G1X-0.95S0
G1X-0.58S450
G1X-1.06S0
G1X-0.41S450
G1X-3.56S0
G1X-1.18S450
G1X-0.27S0
G1X-0.89S450
G1X-3.34S0
G1X0.18Y0.1S0
G1X3.33S0
G1X0.55S450
G1X0.54S0
G1X0.98S450
G1X3.7S0
G1X0.46S450
G1X0.83S0
G1X0.62S450
G1X1.05S0
G1X0.4S450
G1X3.34S0
G1Y0.1S0
G1X-3.34S0
G1X-0.4S450
G1X-1.14S0
G1X-0.71S450
G1X-0.5S0
G1X-0.57S450
G1X-3.9S0
G1X-0.66S450
G1X-3.34S0
G1X4.63Y0.1S0
G1X3.34S0
G1X1.6S450
G1X1.25S0
G1X0.4S450
G1X3.34S0
G1Y0.1S0
G1X-3.34S0
G1X-0.4S450
G1X-1.37S0
G1X-1.4S450
G1X-3.34S0
G1X0.12Y0.1S0
G1X3.33S0
G1X1.16S450
G1X1.5S0
G1X0.4S450
G1X3.34S0
G1Y0.1S0
G1X-3.34S0
G1X-0.4S450
G1X-1.69S0
G1X-0.81S450
G1X-3.33S0
G1X-5.86Y0.1S0
G1X3.34S0
G1X1.14S450
G1X3.34S0
G1X0.25Y0.1S0
G1X-3.34S0
G1X-1.65S450
G1X-3.33S0
G1X-0.17Y0.1S0
G1X3.33S0
G1X1.98S450
G1X3.33S0
G1X0.13Y0.1S0
G1X-3.33S0
G1X-2.22S450
G1X-3.33S0
G1X-0.1Y0.1S0
G1X3.34S0
G1X2.39S450
G1X3.33S0
G1X4Y0.1S0
G1X-3.33S0
G1X-0.41S450
G1X-3.51S0
G1X-0.74S450
G1X-1.07S0
G1X-0.74S450
G1X-3.33S0
G1X-0.06Y0.1S0
G1X3.33S0
G1X0.6S450
G1X1.47S0
G1X0.59S450
G1X3.46S0
G1X0.41S450
G1X3.33S0
G1Y0.1S0
G1X-3.33S0
G1X-0.41S450
G1X-3.4S0
G1X-0.52S450
G1X-1.72S0
G1X-0.52S450
G1X-3.34S0
G1X-0.04Y0.1S0
G1X3.34S0
G1X0.47S450
G1X1.89S0
G1X0.47S450
G1X3.37S0
G1X0.41S450
G1X3.33S0
G1Y0.1S0
G1X-3.33S0
G1X-0.41S450
G1X-3.34S0
G1X-0.44S450
G1X-2.01S0
G1X-0.44S450
G1X-3.33S0
G1X-0.03Y0.1S0
G1X3.34S0
G1X0.42S450
G1X2.09S0
G1X0.42S450
G1X3.32S0
G1X0.41S450
G1X2.53S0
G1X0.46S450
G1X3.34S0
G1Y0.1S0
G1X-3.34S0
G1X-0.93S450
G1X-2.06S0
G1X-0.41S450
G1X-3.31S0
G1X-0.4S450
G1X-2.15S0
G1X-0.4S450
G1X-3.33S0
G1X-0.01Y0.1S0
G1X3.33S0
G1X0.4S450
G1X2.17S0
G1X0.4S450
G1X3.3S0
G1X0.41S450
G1X1.74S0
G1X1.25S450
G1X3.34S0
G1Y0.1S0
G1X-3.34S0
G1X-1.55S450
G1X-1.44S0
G1X-0.41S450
G1X-3.3S0
G1X-0.4S450
G1X-2.17S0
G1X-0.4S450
G1X-3.33S0
G1Y0.1S0
G1X3.34S0
G1X0.4S450
G1X2.15S0
G1X0.4S450
G1X3.31S0
G1X0.41S450
G1X1.22S0
G1X1.65S450
G1X3.34S0
G1X-0.62Y0.1S0
G1X-3.33S0
G1X-1.25S450
G1X-1.01S0
G1X-0.41S450
G1X-3.32S0
G1X-0.41S450
G1X-2.1S0
G1X-0.42S450
G1X-3.34S0
G1X0.02Y0.1S0
G1X3.34S0
G1X0.43S450
G1X2.03S0
G1X0.43S450
G1X3.34S0
G1X0.41S450
G1X0.82S0
G1X1.08S450
G1X3.33S0
G1X-0.28Y0.1S0
G1X-3.34S0
G1X-0.96S450
G1X-0.65S0
G1X-0.41S450
G1X-3.37S0
G1X-0.46S450
G1X-1.91S0
G1X-0.46S450
G1X-3.34S0
G1X0.03Y0.1S0
G1X3.34S0
G1X0.52S450
G1X1.74S0
G1X0.51S450
G1X3.4S0
G1X0.41S450
G1X0.48S0
G1X0.88S450
G1X3.33S0
G1X-0.2Y0.1S0
G1X-3.34S0
G1X-0.82S450
G1X-0.33S0
G1X-0.41S450
G1X-3.45S0
G1X-0.58S450
G1X-1.51S0
G1X-0.58S450
G1X-3.33S0
G1X0.05Y0.1S0
G1X3.33S0
G1X0.71S450
G1X1.15S0
G1X0.7S450
G1X3.51S0
G1X0.41S450
G1X0.2S0
G1X0.75S450
G1X3.33S0
G1X-0.19Y0.1S0
G1X-3.33S0
G1X-0.69S450
G1X-0.07S0
G1X-0.41S450
G1X-3.57S0
G1X-2.42S450
G1X-3.33S0
G1X0.08Y0.1S0
G1X3.33S0
G1X2.25S450
G1X3.66S0
G1X1S450
G1X3.33S0
G1X-0.15Y0.1S0
G1X-3.33S0
G1X-0.85S450
G1X-3.77S0
G1X-2.02S450
G1X-3.33S0
G1X0.14Y0.1S0
G1X3.33S0
G1X1.74S450
G1X3.91S0
G1X0.7S450
G1X3.33S0
G1X-0.13Y0.1S0
G1X-3.33S0
G1X-0.57S450
G1X-4.13S0
G1X-1.3S450
G1X-3.34S0
G1X5.44Y0.1S0
G1X3.33S0
G1X0.45S450
G1X3.33S0
G1X2.23Y0.6S0
G1X-3.33S0
G1X-0.08S450
G1X-1.03S0
G1X-0.94S450
G1X-3.99S0
G1X-2.85S450
G1X-3.34S0
G1Y0.1S0
G1X3.34S0
G1X2.85S450
G1X3.79S0
G1X1.34S450
G1X0.83S0
G1X0.39S450
G1X3.33S0
G1X0.15Y0.1S0
G1X-3.33S0
G1X-0.55S450
G1X-0.69S0
G1X-1.59S450
G1X-3.67S0
G1X-2.85S450
G1X-3.34S0
G1Y0.1S0
G1X3.34S0
G1X2.85S450
G1X3.57S0
G1X1.79S450
G1X0.58S0
G1X0.66S450
G1X3.34S0
G1X0.07Y0.1S0
G1X-3.34S0
G1X-0.69S450
G1X-0.54S0
G1X-0.68S450
G1X-0.58S0
G1X-0.7S450
G1X-3.48S0
G1X-2.85S450
G1X-3.34S0
G1Y0.1S0
G1X3.34S0
G1X0.4S450
G1X0.8S0
G1X0.4S450
G1X0.86S0
G1X0.39S450
G1X3.43S0
G1X0.54S450
G1X0.98S0
G1X0.54S450
G1X0.75S0
G1X0.49S450
G1X3.33S0
G1X0.04Y0.1S0
G1X-3.33S0
G1X-0.42S450
G1X-0.82S0
G1X-0.47S450
G1X-1.21S0
G1X-0.47S450
G1X-3.38S0
G1X-0.39S450
G1X-0.86S0
G1X-0.4S450
G1X-0.8S0
G1X-0.4S450
G1X-3.34S0
G1Y0.1S0
G1X3.34S0
G1X0.4S450
G1X0.8S0
G1X0.4S450
G1X0.86S0
G1X0.39S450
G1X3.35S0
G1X0.42S450
G1X1.36S0
G1X0.44S450
G1X0.84S0
G1X0.38S450
G1X3.34S0
G1X0.01Y0.1S0
G1X-3.33S0
G1X-0.36S450
G1X-0.87S0
G1X-0.4S450
G1X-1.47S0
G1X-0.38S450
G1X-3.33S0
G1X-0.39S450
G1X-0.86S0
G1X-0.4S450
G1X-0.8S0
G1X-0.4S450
G1X-3.34S0
G1Y0.1S0
G1X3.34S0
G1X0.4S450
G1X0.8S0
G1X0.4S450
G1X0.86S0
G1X0.39S450
G1X3.32S0
G1X0.36S450
G1X1.53S0
G1X0.38S450
G1X0.88S0
G1X0.35S450
G1X3.33S0
G1Y0.1S0
G1X-3.33S0
G1X-0.35S450
G1X-0.88S0
G1X-0.37S450
G1X-1.56S0
G1X-0.35S450
G1X-3.31S0
G1X-0.39S450
G1X-0.86S0
G1X-0.4S450
G1X-0.8S0
G1X-0.4S450
G1X-3.34S0
G1Y0.1S0
G1X3.34S0
G1X0.4S450
G1X0.8S0
G1X0.4S450
G1X0.85S0
G1X0.4S450
G1X3.31S0
G1X0.35S450
G1X1.56S0
G1X0.35S450
G1X0.89S0
G1X0.35S450
G1X3.33S0
G1X-0.01Y0.1S0
G1X-3.34S0
G1X-0.36S450
G1X-0.87S0
G1X-0.36S450
G1X-1.52S0
G1X-0.35S450
G1X-3.33S0
G1X-0.4S450
G1X-0.85S0
G1X-0.41S450
G1X-0.78S0
G1X-0.41S450
G1X-3.33S0
G1Y0.1S0
G1X3.33S0
G1X0.42S450
G1X0.76S0
G1X0.42S450
G1X0.85S0
G1X0.4S450
G1X3.35S0
G1X0.36S450
G1X1.46S0
G1X0.35S450
G1X0.87S0
G1X0.38S450
G1X3.33S0
G1X-0.03Y0.1S0
G1X-3.34S0
G1X-0.42S450
G1X-0.83S0
G1X-0.36S450
G1X-1.35S0
G1X-0.39S450
G1X-3.39S0
G1X-0.41S450
G1X-0.81S0
G1X-0.46S450
G1X-0.72S0
G1X-0.43S450
G1X-3.33S0
G1X0.01Y0.1S0
G1X3.33S0
G1X0.46S450
G1X0.63S0
G1X0.52S450
G1X0.78S0
G1X0.43S450
G1X3.43S0
G1X0.43S450
G1X1.19S0
G1X0.37S450
G1X0.79S0
G1X0.49S450
G1X3.33S0
G1X-0.06Y0.1S0
G1X-3.34S0
G1X-0.59S450
G1X-0.7S0
G1X-0.42S450
G1X-0.93S0
G1X-0.5S450
G1X-3.51S0
G1X-0.44S450
G1X-0.71S0
G1X-0.65S450
G1X-0.46S0
G1X-0.52S450
G1X-3.33S0
G1X0.03Y0.1S0
G1X3.33S0
G1X1.69S450
G1X0.55S0
G1X0.49S450
G1X3.6S0
G1X0.75S450
G1X0.3S0
G1X0.61S450
G1X0.52S0
G1X0.81S450
G1X3.34S0
G1X-0.11Y0.1S0
G1X-3.33S0
G1X-2.8S450
G1X-3.73S0
G1X-0.69S450
G1X-0.07S0
G1X-1.87S450
G1X-3.34S0
G1X0.07Y0.1S0
G1X3.33S0
G1X1.13S450
G1X0.08S0
G1X1.32S450
G1X3.89S0
G1X2.54S450
G1X3.34S0
G1X-0.2Y0.1S0
G1X-3.33S0
G1X-2.18S450
G1X-4.12S0
G1X-1.21S450
G1X-0.22S0
G1X-0.94S450
G1X-3.34S0
G1X0.15Y0.1S0
G1X3.33S0
G1X0.65S450
G1X0.47S0
G1X1.02S450
G1X4.47S0
G1X1.63S450
G1X3.33S0
G1X-6.24Y0.1S0
G1X-3.33S0
G1X-0.75S450
G1X-3.33S0
G1X4.53Y0.5S0
G1X3.33S0
G1X0.41S450
G1X3.33S0
G1Y0.1S0
G1X-3.33S0
G1X-0.41S450
G1X-3.33S0
G1X-6.22Y0.1S0
G1X3.34S0
G1X2.85S450
G1X3.36S0
G1X0.41S450
G1X3.33S0
G1Y0.1S0
G1X-3.33S0
G1X-0.41S450
G1X-3.36S0
G1X-2.85S450
G1X-3.34S0
G1Y0.1S0
G1X3.34S0
G1X2.85S450
G1X3.36S0
G1X0.41S450
G1X3.33S0
G1X3Y0.1S0
G1X-3.34S0
G1X-0.73S450
G1X-2.26S0
G1X-0.41S450
G1X-3.36S0
G1X-2.85S450
G1X-3.34S0
G1Y0.1S0
G1X3.34S0
G1X2.85S450
G1X3.36S0
G1X0.41S450
G1X1.89S0
G1X1.1S450
G1X3.34S0
G1Y0.1S0
G1X-3.34S0
G1X-1.41S450
G1X-1.58S0
G1X-0.41S450
G1X-4.62S0
G1X-0.41S450
G1X-3.33S0
G1Y0.1S0
G1X3.33S0
G1X0.41S450
G1X4.62S0
G1X0.41S450
G1X1.33S0
G1X1.66S450
G1X3.34S0
G1X-0.53Y0.1S0
G1X-3.34S0
G1X-1.35S450
G1X-1.11S0
G1X-0.41S450
G1X-4.62S0
G1X-0.41S450
G1X-3.33S0
G1Y0.1S0
G1X3.33S0
G1X0.41S450
G1X4.62S0
G1X0.41S450
G1X0.89S0
G1X1.14S450
G1X3.34S0
G1X-0.29Y0.1S0
G1X-3.33S0
G1X-1.02S450
G1X-0.73S0
G1X-0.41S450
G1X-4.62S0
G1X-0.41S450
G1X-3.33S0
G1Y0.1S0
G1X3.33S0
G1X0.41S450
G1X4.62S0
G1X0.41S450
G1X0.56S0
G1X0.9S450
G1X3.34S0
G1X-0.21Y0.1S0
G1X-3.34S0
G1X-0.85S450
G1X-0.4S0
G1X-0.41S450
G1X-4.62S0
G1X-0.41S450
G1X-3.33S0
G1Y0.1S0
G1X3.33S0
G1X0.41S450
G1X4.62S0
G1X0.41S450
G1X0.26S0
G1X0.79S450
G1X3.33S0
G1X-0.2Y0.1S0
G1X-3.34S0
G1X-0.71S450
G1X-0.13S0
G1X-0.41S450
G1X-4.62S0
G1X-0.41S450
G1X-3.33S0
G1Y0.1S0
G1X3.33S0
G1X0.41S450
G1X4.62S0
G1X0.41S450
G1X0.67
G1X3.34S0
G1X-0.17Y0.1S0
G1X-3.33S0
G1X-0.92S450
G1X-4.62S0
G1X-0.41S450
G1X-3.33S0
G1Y0.1S0
G1X3.33S0
G1X0.41S450
G1X4.62S0
G1X0.77S450
G1X3.33S0
G1X-0.14Y0.1S0
G1X-3.33S0
G1X-0.63S450
G1X-4.62S0
G1X-0.41S450
G1X-3.33S0
G1Y0.1S0
G1X3.33S0
G1X0.41S450
G1X4.62S0
G1X0.5S450
G1X3.33S0
G1X-0.11Y0.1S0
G1X-3.34S0
G1X-0.38S450
G1X-3.36S0
G1X-2.85S450
G1X-3.34S0
G1Y0.1S0
G1X3.34S0
G1X2.85S450
G1X3.33S0
G1Y0.1S0
G1X-3.33S0
G1X-2.85S450
G1X-3.34S0
G1Y0.1S0
G1X3.34S0
G1X2.85S450
G1X3.33S0
G1X-0.49Y0.7S0
G1X-3.33S0
G1X-0.51S450
G1X-3.34S0
G1X-1.22Y0.1S0
G1X3.33S0
G1X0.2S450
G1X0.83S0
G1X0.91S450
G1X3.34S0
G1X0.11Y0.1S0
G1X-3.34S0
G1X-1.14S450
G1X-0.69S0
G1X-0.43S450
G1X-3.33S0
G1X-0.13Y0.1S0
G1X3.33S0
G1X0.57S450
G1X0.59S0
G1X1.31S450
G1X3.33S0
G1X0.06Y0.1S0
G1X-3.34S0
G1X-1.42S450
G1X-0.51S0
G1X-0.68S450
G1X-3.33S0
G1X-0.07Y0.1S0
G1X3.34S0
G1X0.75S450
G1X0.45S0
G1X0.61S450
G1X0.29S0
G1X0.62S450
G1X3.33S0
G1X0.03Y0.1S0
G1X-3.34S0
G1X-0.49S450
G1X-0.59S0
G1X-0.49S450
G1X-0.65S0
G1X-0.57S450
G1X-3.34S0
G1X-0.04Y0.1S0
G1X3.33S0
G1X0.48S450
G1X0.76S0
G1X0.45S450
G1X0.74S0
G1X0.44S450
G1X3.33S0
G1X0.01Y0.1S0
G1X-3.34S0
G1X-0.4S450
G1X-0.82S0
G1X-0.43S450
G1X-0.82S0
G1X-0.42S450
G1X-3.34S0
G1X-0.02Y0.1S0
G1X3.33S0
G1X0.41S450
G1X0.84S0
G1X0.42S450
G1X0.87S0
G1X0.39S450
G1X3.33S0
G1Y0.1S0
G1X-3.33S0
G1X-0.38S450
G1X-0.9S0
G1X-0.41S450
G1X-0.86S0
G1X-0.4S450
G1X-3.33S0
G1X-0.01Y0.1S0
G1X3.33S0
G1X0.4S450
G1X0.86S0
G1X0.4S450
G1X0.92S0
G1X0.37S450
G1X3.33S0
G1X-0.01Y0.1S0
G1X-3.33S0
G1X-0.38S450
G1X-0.91S0
G1X-0.41S450
G1X-0.85S0
G1X-0.39S450
G1X-3.34S0
G1X-0.01Y0.1S0
G1X3.34S0
G1X0.4S450
G1X0.84S0
G1X0.4S450
G1X0.92S0
G1X0.36S450
G1X3.34S0
G1X-0.03Y0.1S0
G1X-3.33S0
G1X-0.37S450
G1X-0.91S0
G1X-0.4S450
G1X-0.81S0
G1X-0.41S450
G1X-3.33S0
G1Y0.1S0
G1X3.34S0
G1X0.41S450
G1X0.79S0
G1X0.39S450
G1X0.89S0
G1X0.37S450
G1X3.33S0
G1X-0.05Y0.1S0
G1X-3.33S0
G1X-0.38S450
G1X-0.85S0
G1X-0.39S450
G1X-0.74S0
G1X-0.44S450
G1X-3.33S0
G1X0.01Y0.1S0
G1X3.34S0
G1X0.46S450
G1X0.68S0
G1X0.39S450
G1X0.79S0
G1X0.41S450
G1X3.33S0
G1X-0.07Y0.1S0
G1X-3.33S0
G1X-0.46S450
G1X-0.7S0
G1X-0.39S450
G1X-0.59S0
G1X-0.5S450
G1X-3.33S0
G1X0.02Y0.1S0
G1X3.34S0
G1X0.62S450
G1X0.41S0
G1X0.39S450
G1X0.52S0
G1X0.6S450
G1X3.33S0
G1X0.02Y0.1S0
G1X-3.34S0
G1X-2.51S450
G1X-3.33S0
G1X0.04Y0.1S0
G1X3.34S0
G1X2.74S450
G1X3.33S0
G1Y0.1S0
G1X-3.33S0
G1X-2.66S450
G1X-3.34S0
G1X0.12Y0.1S0
G1X3.33S0
G1X2.55S450
G1X3.33S0
G1Y0.1S0
G1X-3.33S0
G1X-2.32S450
G1X-3.33S0
G1X2.1Y0.1S0
G1X3.34S0
G1X0.21S450
G1X3.33S0
; Cut @ 300 mm/min, 45% power
M8
G0X-12.69Y-14.55
; Layer C09 Pass 1 of 5
G1X-0.15Y0.05S450F300
G1X-0.15Y0.01
G1X-0.16Y-0.02
G1X-0.55Y-0.19
G1X-0.5Y-0.27
G1X-0.44Y-0.35
G1X-0.38Y-0.42
G1X-0.32Y-0.47
G1X-0.23Y-0.53
G1X-0.15Y-0.56
G1X-0.06Y-0.6
G1X0.03Y-0.53
G1X0.11Y-0.49
G1X0.17Y-0.43
G1X0.22Y-0.39
G1X0.26Y-0.34
G1X0.3Y-0.29
G1X0.32Y-0.24
G1X0.32Y-0.18
G1X0.33Y-0.14
G1X0.32Y-0.08
G1X0.3Y-0.04
G1X0.26Y0.03
G1X0.22Y0.07
G1X0.17Y0.13
G1X0.11Y0.19
G1X0.03Y0.24
G1X0.03Y1.31
G1Y3.89
G1X-0.02Y0.16
G1X-0.05Y0.15
G1X-0.08Y0.13
G1X-0.12Y0.12
G1X-0.14Y0.08
; Layer C09 Pass 2 of 5
G1X-0.15Y0.05
G1X-0.15Y0.01
G1X-0.16Y-0.02
G1X-0.55Y-0.19
G1X-0.5Y-0.27
G1X-0.44Y-0.35
G1X-0.38Y-0.42
G1X-0.32Y-0.47
G1X-0.23Y-0.53
G1X-0.15Y-0.56
G1X-0.06Y-0.6
G1X0.03Y-0.53
G1X0.11Y-0.49
G1X0.17Y-0.43
G1X0.22Y-0.39
G1X0.26Y-0.34
G1X0.3Y-0.29
G1X0.32Y-0.24
G1X0.32Y-0.18
G1X0.33Y-0.14
G1X0.32Y-0.08
G1X0.3Y-0.04
G1X0.26Y0.03
G1X0.22Y0.07
G1X0.17Y0.13
G1X0.11Y0.19
G1X0.03Y0.24
G1X0.03Y1.31
G1Y3.89
G1X-0.02Y0.16
G1X-0.05Y0.15
G1X-0.08Y0.13
G1X-0.12Y0.12
G1X-0.14Y0.08
; Layer C09 Pass 3 of 5
G1X-0.15Y0.05
G1X-0.15Y0.01
G1X-0.16Y-0.02
G1X-0.55Y-0.19
G1X-0.5Y-0.27
G1X-0.44Y-0.35
G1X-0.38Y-0.42
G1X-0.32Y-0.47
G1X-0.23Y-0.53
G1X-0.15Y-0.56
G1X-0.06Y-0.6
G1X0.03Y-0.53
G1X0.11Y-0.49
G1X0.17Y-0.43
G1X0.22Y-0.39
G1X0.26Y-0.34
G1X0.3Y-0.29
G1X0.32Y-0.24
G1X0.32Y-0.18
G1X0.33Y-0.14
G1X0.32Y-0.08
G1X0.3Y-0.04
G1X0.26Y0.03
G1X0.22Y0.07
G1X0.17Y0.13
G1X0.11Y0.19
G1X0.03Y0.24
G1X0.03Y1.31
G1Y3.89
G1X-0.02Y0.16
G1X-0.05Y0.15
G1X-0.08Y0.13
G1X-0.12Y0.12
G1X-0.14Y0.08
; Layer C09 Pass 4 of 5
G1X-0.15Y0.05
G1X-0.15Y0.01
G1X-0.16Y-0.02
G1X-0.55Y-0.19
G1X-0.5Y-0.27
G1X-0.44Y-0.35
G1X-0.38Y-0.42
G1X-0.32Y-0.47
G1X-0.23Y-0.53
G1X-0.15Y-0.56
G1X-0.06Y-0.6
G1X0.03Y-0.53
G1X0.11Y-0.49
G1X0.17Y-0.43
G1X0.22Y-0.39
G1X0.26Y-0.34
G1X0.3Y-0.29
G1X0.32Y-0.24
G1X0.32Y-0.18
G1X0.33Y-0.14
G1X0.32Y-0.08
G1X0.3Y-0.04
G1X0.26Y0.03
G1X0.22Y0.07
G1X0.17Y0.13
G1X0.11Y0.19
G1X0.03Y0.24
G1X0.03Y1.31
G1Y3.89
G1X-0.02Y0.16
G1X-0.05Y0.15
G1X-0.08Y0.13
G1X-0.12Y0.12
G1X-0.14Y0.08
; Layer C09 Pass 5 of 5
G1X-0.15Y0.05
G1X-0.15Y0.01
G1X-0.16Y-0.02
G1X-0.55Y-0.19
G1X-0.5Y-0.27
G1X-0.44Y-0.35
G1X-0.38Y-0.42
G1X-0.32Y-0.47
G1X-0.23Y-0.53
G1X-0.15Y-0.56
G1X-0.06Y-0.6
G1X0.03Y-0.53
G1X0.11Y-0.49
G1X0.17Y-0.43
G1X0.22Y-0.39
G1X0.26Y-0.34
G1X0.3Y-0.29
G1X0.32Y-0.24
G1X0.32Y-0.18
G1X0.33Y-0.14
G1X0.32Y-0.08
G1X0.3Y-0.04
G1X0.26Y0.03
G1X0.22Y0.07
G1X0.17Y0.13
G1X0.11Y0.19
G1X0.03Y0.24
G1X0.03Y1.31
G1Y3.89
G1X-0.02Y0.16
G1X-0.05Y0.15
G1X-0.08Y0.13
G1X-0.12Y0.12
G1X-0.14Y0.08
G0X-3.56Y2.16
; Layer C09 Pass 1 of 5
G1X-0.42Y-0.32
G1X-0.38Y-0.36
G1X-0.36Y-0.38
G1X-0.33Y-0.41
G1X-0.3Y-0.44
G1X-0.26Y-0.46
G1X-0.23Y-0.48
G1X-0.19Y-0.5
G1X-0.15Y-0.51
G1X-0.11Y-0.54
G1X-0.07Y-0.55
G1X-0.02Y-0.56
G1X0.02Y-0.56
G1X0.07Y-0.55
G1X0.11Y-0.54
G1X0.15Y-0.51
G1X0.19Y-0.5
G1X0.23Y-0.48
G1X0.26Y-0.46
G1X0.3Y-0.44
G1X0.33Y-0.41
G1X0.36Y-0.38
G1X0.38Y-0.36
G1X0.42Y-0.32
G1X0.44Y-0.29
G1X0.46Y-0.26
G1X0.48Y-0.22
G1X0.51Y-0.19
G1X0.45Y-0.18
G1X0.41Y-0.25
G1X0.35Y-0.3
G1X0.3Y-0.35
G1X0.24Y-0.4
G1X0.18Y-0.43
G1X0.11Y-0.46
G1X0.04Y-0.48
G1Y-4.38
G1X0.03Y-0.64
G1X0.1Y-0.63
G1X0.15Y-0.6
G1X0.22Y-0.58
G1X0.26Y-0.55
G1X0.32Y-0.52
G1X0.36Y-0.48
G1X0.41Y-0.45
G1X0.45Y-0.41
G1X0.48Y-0.36
G1X0.52Y-0.32
G1X0.55Y-0.26
G1X0.58Y-0.22
G1X0.6Y-0.15
G1X0.63Y-0.1
G1X0.64Y-0.03
G1X7.4
G1X0.64Y0.03
G1X0.63Y0.1
G1X0.6Y0.15
G1X0.58Y0.22
G1X0.55Y0.26
G1X0.52Y0.32
G1X0.48Y0.36
G1X0.45Y0.41
G1X0.41Y0.45
G1X0.36Y0.48
G1X0.32Y0.52
G1X0.26Y0.55
G1X0.22Y0.58
G1X0.15Y0.6
G1X0.1Y0.63
G1X0.03Y0.64
G1Y27.4
G1X-0.03Y0.64
G1X-0.1Y0.63
G1X-0.15Y0.6
G1X-0.22Y0.58
G1X-0.26Y0.55
G1X-0.32Y0.52
G1X-0.36Y0.48
G1X-0.41Y0.45
G1X-0.45Y0.41
G1X-0.48Y0.36
G1X-0.52Y0.32
G1X-0.55Y0.26
G1X-0.58Y0.22
G1X-0.6Y0.15
G1X-0.63Y0.1
G1X-0.64Y0.03
G1X-7.4
G1X-0.64Y-0.03
G1X-0.63Y-0.1
G1X-0.6Y-0.15
G1X-0.58Y-0.22
G1X-0.55Y-0.26
G1X-0.52Y-0.32
G1X-0.48Y-0.36
G1X-0.45Y-0.41
G1X-0.41Y-0.45
G1X-0.36Y-0.48
G1X-0.32Y-0.52
G1X-0.26Y-0.55
G1X-0.22Y-0.58
G1X-0.15Y-0.6
G1X-0.1Y-0.63
G1X-0.03Y-0.64
G1Y-4.38
G1X-0.04Y-0.48
G1X-0.11Y-0.46
G1X-0.18Y-0.43
G1X-0.24Y-0.4
G1X-0.3Y-0.35
G1X-0.35Y-0.3
G1X-0.41Y-0.25
G1X-0.45Y-0.18
G1X-0.51Y-0.19
G1X-0.48Y-0.22
G1X-0.46Y-0.26
G1X-0.44Y-0.29
; Layer C09 Pass 2 of 5
G1X-0.42Y-0.32
G1X-0.38Y-0.36
G1X-0.36Y-0.38
G1X-0.33Y-0.41
G1X-0.3Y-0.44
G1X-0.26Y-0.46
G1X-0.23Y-0.48
G1X-0.19Y-0.5
G1X-0.15Y-0.51
G1X-0.11Y-0.54
G1X-0.07Y-0.55
G1X-0.02Y-0.56
G1X0.02Y-0.56
G1X0.07Y-0.55
G1X0.11Y-0.54
G1X0.15Y-0.51
G1X0.19Y-0.5
G1X0.23Y-0.48
G1X0.26Y-0.46
G1X0.3Y-0.44
G1X0.33Y-0.41
G1X0.36Y-0.38
G1X0.38Y-0.36
G1X0.42Y-0.32
G1X0.44Y-0.29
G1X0.46Y-0.26
G1X0.48Y-0.22
G1X0.51Y-0.19
G1X0.45Y-0.18
G1X0.41Y-0.25
G1X0.35Y-0.3
G1X0.3Y-0.35
G1X0.24Y-0.4
G1X0.18Y-0.43
G1X0.11Y-0.46
G1X0.04Y-0.48
G1Y-4.38
G1X0.03Y-0.64
G1X0.1Y-0.63
G1X0.15Y-0.6
G1X0.22Y-0.58
G1X0.26Y-0.55
G1X0.32Y-0.52
G1X0.36Y-0.48
G1X0.41Y-0.45
G1X0.45Y-0.41
G1X0.48Y-0.36
G1X0.52Y-0.32
G1X0.55Y-0.26
G1X0.58Y-0.22
G1X0.6Y-0.15
G1X0.63Y-0.1
G1X0.64Y-0.03
G1X7.4
G1X0.64Y0.03
G1X0.63Y0.1
G1X0.6Y0.15
G1X0.58Y0.22
G1X0.55Y0.26
G1X0.52Y0.32
G1X0.48Y0.36
G1X0.45Y0.41
G1X0.41Y0.45
G1X0.36Y0.48
G1X0.32Y0.52
G1X0.26Y0.55
G1X0.22Y0.58
G1X0.15Y0.6
G1X0.1Y0.63
G1X0.03Y0.64
G1Y27.4
G1X-0.03Y0.64
G1X-0.1Y0.63
G1X-0.15Y0.6
G1X-0.22Y0.58
G1X-0.26Y0.55
G1X-0.32Y0.52
G1X-0.36Y0.48
G1X-0.41Y0.45
G1X-0.45Y0.41
G1X-0.48Y0.36
G1X-0.52Y0.32
G1X-0.55Y0.26
G1X-0.58Y0.22
G1X-0.6Y0.15
G1X-0.63Y0.1
G1X-0.64Y0.03
G1X-7.4
G1X-0.64Y-0.03
G1X-0.63Y-0.1
G1X-0.6Y-0.15
G1X-0.58Y-0.22
G1X-0.55Y-0.26
G1X-0.52Y-0.32
G1X-0.48Y-0.36
G1X-0.45Y-0.41
G1X-0.41Y-0.45
G1X-0.36Y-0.48
G1X-0.32Y-0.52
G1X-0.26Y-0.55
G1X-0.22Y-0.58
G1X-0.15Y-0.6
G1X-0.1Y-0.63
G1X-0.03Y-0.64
G1Y-4.38
G1X-0.04Y-0.48
G1X-0.11Y-0.46
G1X-0.18Y-0.43
G1X-0.24Y-0.4
G1X-0.3Y-0.35
G1X-0.35Y-0.3
G1X-0.41Y-0.25
G1X-0.45Y-0.18
G1X-0.51Y-0.19
G1X-0.48Y-0.22
G1X-0.46Y-0.26
G1X-0.44Y-0.29
; Layer C09 Pass 3 of 5
G1X-0.42Y-0.32
G1X-0.38Y-0.36
G1X-0.36Y-0.38
G1X-0.33Y-0.41
G1X-0.3Y-0.44
G1X-0.26Y-0.46
G1X-0.23Y-0.48
G1X-0.19Y-0.5
G1X-0.15Y-0.51
G1X-0.11Y-0.54
G1X-0.07Y-0.55
G1X-0.02Y-0.56
G1X0.02Y-0.56
G1X0.07Y-0.55
G1X0.11Y-0.54
G1X0.15Y-0.51
G1X0.19Y-0.5
G1X0.23Y-0.48
G1X0.26Y-0.46
G1X0.3Y-0.44
G1X0.33Y-0.41
G1X0.36Y-0.38
G1X0.38Y-0.36
G1X0.42Y-0.32
G1X0.44Y-0.29
G1X0.46Y-0.26
G1X0.48Y-0.22
G1X0.51Y-0.19
G1X0.45Y-0.18
G1X0.41Y-0.25
G1X0.35Y-0.3
G1X0.3Y-0.35
G1X0.24Y-0.4
G1X0.18Y-0.43
G1X0.11Y-0.46
G1X0.04Y-0.48
G1Y-4.38
G1X0.03Y-0.64
G1X0.1Y-0.63
G1X0.15Y-0.6
G1X0.22Y-0.58
G1X0.26Y-0.55
G1X0.32Y-0.52
G1X0.36Y-0.48
G1X0.41Y-0.45
G1X0.45Y-0.41
G1X0.48Y-0.36
G1X0.52Y-0.32
G1X0.55Y-0.26
G1X0.58Y-0.22
G1X0.6Y-0.15
G1X0.63Y-0.1
G1X0.64Y-0.03
G1X7.4
G1X0.64Y0.03
G1X0.63Y0.1
G1X0.6Y0.15
G1X0.58Y0.22
G1X0.55Y0.26
G1X0.52Y0.32
G1X0.48Y0.36
G1X0.45Y0.41
G1X0.41Y0.45
G1X0.36Y0.48
G1X0.32Y0.52
G1X0.26Y0.55
G1X0.22Y0.58
G1X0.15Y0.6
G1X0.1Y0.63
G1X0.03Y0.64
G1Y27.4
G1X-0.03Y0.64
G1X-0.1Y0.63
G1X-0.15Y0.6
G1X-0.22Y0.58
G1X-0.26Y0.55
G1X-0.32Y0.52
G1X-0.36Y0.48
G1X-0.41Y0.45
G1X-0.45Y0.41
G1X-0.48Y0.36
G1X-0.52Y0.32
G1X-0.55Y0.26
G1X-0.58Y0.22
G1X-0.6Y0.15
G1X-0.63Y0.1
G1X-0.64Y0.03
G1X-7.4
G1X-0.64Y-0.03
G1X-0.63Y-0.1
G1X-0.6Y-0.15
G1X-0.58Y-0.22
G1X-0.55Y-0.26
G1X-0.52Y-0.32
G1X-0.48Y-0.36
G1X-0.45Y-0.41
G1X-0.41Y-0.45
G1X-0.36Y-0.48
G1X-0.32Y-0.52
G1X-0.26Y-0.55
G1X-0.22Y-0.58
G1X-0.15Y-0.6
G1X-0.1Y-0.63
G1X-0.03Y-0.64
G1Y-4.38
G1X-0.04Y-0.48
G1X-0.11Y-0.46
G1X-0.18Y-0.43
G1X-0.24Y-0.4
G1X-0.3Y-0.35
G1X-0.35Y-0.3
G1X-0.41Y-0.25
G1X-0.45Y-0.18
G1X-0.51Y-0.19
G1X-0.48Y-0.22
G1X-0.46Y-0.26
G1X-0.44Y-0.29
; Layer C09 Pass 4 of 5
G1X-0.42Y-0.32
G1X-0.38Y-0.36
G1X-0.36Y-0.38
G1X-0.33Y-0.41
G1X-0.3Y-0.44
G1X-0.26Y-0.46
G1X-0.23Y-0.48
G1X-0.19Y-0.5
G1X-0.15Y-0.51
G1X-0.11Y-0.54
G1X-0.07Y-0.55
G1X-0.02Y-0.56
G1X0.02Y-0.56
G1X0.07Y-0.55
G1X0.11Y-0.54
G1X0.15Y-0.51
G1X0.19Y-0.5
G1X0.23Y-0.48
G1X0.26Y-0.46
G1X0.3Y-0.44
G1X0.33Y-0.41
G1X0.36Y-0.38
G1X0.38Y-0.36
G1X0.42Y-0.32
G1X0.44Y-0.29
G1X0.46Y-0.26
G1X0.48Y-0.22
G1X0.51Y-0.19
G1X0.45Y-0.18
G1X0.41Y-0.25
G1X0.35Y-0.3
G1X0.3Y-0.35
G1X0.24Y-0.4
G1X0.18Y-0.43
G1X0.11Y-0.46
G1X0.04Y-0.48
G1Y-4.38
G1X0.03Y-0.64
G1X0.1Y-0.63
G1X0.15Y-0.6
G1X0.22Y-0.58
G1X0.26Y-0.55
G1X0.32Y-0.52
G1X0.36Y-0.48
G1X0.41Y-0.45
G1X0.45Y-0.41
G1X0.48Y-0.36
G1X0.52Y-0.32
G1X0.55Y-0.26
G1X0.58Y-0.22
G1X0.6Y-0.15
G1X0.63Y-0.1
G1X0.64Y-0.03
G1X7.4
G1X0.64Y0.03
G1X0.63Y0.1
G1X0.6Y0.15
G1X0.58Y0.22
G1X0.55Y0.26
G1X0.52Y0.32
G1X0.48Y0.36
G1X0.45Y0.41
G1X0.41Y0.45
G1X0.36Y0.48
G1X0.32Y0.52
G1X0.26Y0.55
G1X0.22Y0.58
G1X0.15Y0.6
G1X0.1Y0.63
G1X0.03Y0.64
G1Y27.4
G1X-0.03Y0.64
G1X-0.1Y0.63
G1X-0.15Y0.6
G1X-0.22Y0.58
G1X-0.26Y0.55
G1X-0.32Y0.52
G1X-0.36Y0.48
G1X-0.41Y0.45
G1X-0.45Y0.41
G1X-0.48Y0.36
G1X-0.52Y0.32
G1X-0.55Y0.26
G1X-0.58Y0.22
G1X-0.6Y0.15
G1X-0.63Y0.1
G1X-0.64Y0.03
G1X-7.4
G1X-0.64Y-0.03
G1X-0.63Y-0.1
G1X-0.6Y-0.15
G1X-0.58Y-0.22
G1X-0.55Y-0.26
G1X-0.52Y-0.32
G1X-0.48Y-0.36
G1X-0.45Y-0.41
G1X-0.41Y-0.45
G1X-0.36Y-0.48
G1X-0.32Y-0.52
G1X-0.26Y-0.55
G1X-0.22Y-0.58
G1X-0.15Y-0.6
G1X-0.1Y-0.63
G1X-0.03Y-0.64
G1Y-4.38
G1X-0.04Y-0.48
G1X-0.11Y-0.46
G1X-0.18Y-0.43
G1X-0.24Y-0.4
G1X-0.3Y-0.35
G1X-0.35Y-0.3
G1X-0.41Y-0.25
G1X-0.45Y-0.18
G1X-0.51Y-0.19
G1X-0.48Y-0.22
G1X-0.46Y-0.26
G1X-0.44Y-0.29
; Layer C09 Pass 5 of 5
G1X-0.42Y-0.32
G1X-0.38Y-0.36
G1X-0.36Y-0.38
G1X-0.33Y-0.41
G1X-0.3Y-0.44
G1X-0.26Y-0.46
G1X-0.23Y-0.48
G1X-0.19Y-0.5
G1X-0.15Y-0.51
G1X-0.11Y-0.54
G1X-0.07Y-0.55
G1X-0.02Y-0.56
G1X0.02Y-0.56
G1X0.07Y-0.55
G1X0.11Y-0.54
G1X0.15Y-0.51
G1X0.19Y-0.5
G1X0.23Y-0.48
G1X0.26Y-0.46
G1X0.3Y-0.44
G1X0.33Y-0.41
G1X0.36Y-0.38
G1X0.38Y-0.36
G1X0.42Y-0.32
G1X0.44Y-0.29
G1X0.46Y-0.26
G1X0.48Y-0.22
G1X0.51Y-0.19
G1X0.45Y-0.18
G1X0.41Y-0.25
G1X0.35Y-0.3
G1X0.3Y-0.35
G1X0.24Y-0.4
G1X0.18Y-0.43
G1X0.11Y-0.46
G1X0.04Y-0.48
G1Y-4.38
G1X0.03Y-0.64
G1X0.1Y-0.63
G1X0.15Y-0.6
G1X0.22Y-0.58
G1X0.26Y-0.55
G1X0.32Y-0.52
G1X0.36Y-0.48
G1X0.41Y-0.45
G1X0.45Y-0.41
G1X0.48Y-0.36
G1X0.52Y-0.32
G1X0.55Y-0.26
G1X0.58Y-0.22
G1X0.6Y-0.15
G1X0.63Y-0.1
G1X0.64Y-0.03
G1X7.4
G1X0.64Y0.03
G1X0.63Y0.1
G1X0.6Y0.15
G1X0.58Y0.22
G1X0.55Y0.26
G1X0.52Y0.32
G1X0.48Y0.36
G1X0.45Y0.41
G1X0.41Y0.45
G1X0.36Y0.48
G1X0.32Y0.52
G1X0.26Y0.55
G1X0.22Y0.58
G1X0.15Y0.6
G1X0.1Y0.63
G1X0.03Y0.64
G1Y27.4
G1X-0.03Y0.64
G1X-0.1Y0.63
G1X-0.15Y0.6
G1X-0.22Y0.58
G1X-0.26Y0.55
G1X-0.32Y0.52
G1X-0.36Y0.48
G1X-0.41Y0.45
G1X-0.45Y0.41
G1X-0.48Y0.36
G1X-0.52Y0.32
G1X-0.55Y0.26
G1X-0.58Y0.22
G1X-0.6Y0.15
G1X-0.63Y0.1
G1X-0.64Y0.03
G1X-7.4
G1X-0.64Y-0.03
G1X-0.63Y-0.1
G1X-0.6Y-0.15
G1X-0.58Y-0.22
G1X-0.55Y-0.26
G1X-0.52Y-0.32
G1X-0.48Y-0.36
G1X-0.45Y-0.41
G1X-0.41Y-0.45
G1X-0.36Y-0.48
G1X-0.32Y-0.52
G1X-0.26Y-0.55
G1X-0.22Y-0.58
G1X-0.15Y-0.6
G1X-0.1Y-0.63
G1X-0.03Y-0.64
G1Y-4.38
G1X-0.04Y-0.48
G1X-0.11Y-0.46
G1X-0.18Y-0.43
G1X-0.24Y-0.4
G1X-0.3Y-0.35
G1X-0.35Y-0.3
G1X-0.41Y-0.25
G1X-0.45Y-0.18
G1X-0.51Y-0.19
G1X-0.48Y-0.22
G1X-0.46Y-0.26
G1X-0.44Y-0.29
M9
G1S0
M5
; return to starting pos
G0 X23.97Y-25.51
M2
